X:32
T: Áll egy hadihajó
O: Györgytarló (Zemplén), Tamók Juliska (18), 1954.03
M:4/4
L:1/4
Q: "Tempo guisto" 1/4=120
K:D
A/A/D/D/ F<A | B/A/G/F/ | E<D D z | 
A/d/c/d/ e<d | B/B/G/A/ | B<A A z | 
A/d/c/d/ e<d | B/B/G/A/ B<A | B/A/G/F/ E z | 
A/A/D/D/ F A/a/ | B/A/G/F/ | E<D D z | 

